assets/img/main/trust/forte.svg

<svg width="249" height="42" viewBox="0 0 249 42" fill="none" xmlns="http://www.w3.org/2000/svg">
<path d="M12.13 33.9452C14.3638 35.9476 16.8711 36.2667 19.0627 34.9459C21.3279 33.5807 22.5795 30.6773 22.1283 28.0147C21.1159 22.041 13.4252 18.4807 7.64045 22.483C5.98218 23.6303 4.41013 24.1279 2.54453 23.8819C1.91515 23.799 1.05018 23.4637 0.819773 22.9883C0.605144 22.5455 0.920221 21.629 1.29551 21.1518C4.12197 17.5574 7.96388 15.865 12.4322 15.4252C12.9221 15.377 13.4128 15.3365 13.9018 15.2808C13.9601 15.2742 14.01 15.1939 14.2166 15.0169C13.5674 11.8994 14.0986 8.83799 15.9085 6.08121C18.6667 1.88003 22.6749 0.181671 27.5532 0.916013C31.3186 1.48281 33.9198 3.78596 35.1741 7.41509C36.1277 10.1745 35.4167 12.6558 33.6422 14.9147C31.7993 17.2607 29.3837 17.8071 26.618 17.2289C24.4827 16.7824 23.214 14.8831 23.5748 12.8229C23.9085 10.917 25.6867 9.74815 27.8155 9.83257C28.5543 9.86186 29.3108 9.44218 30.0592 9.22756C29.7236 8.58701 29.5065 7.83585 29.0307 7.32615C27.4561 5.6394 25.3645 5.77105 23.4896 6.38953C21.3103 7.10842 19.8492 8.77811 19.5017 11.1729C18.816 15.8996 21.9856 19.8118 26.7965 20.6788C29.5834 21.181 32.105 20.4553 34.6209 18.9003C36.0558 18.0135 38.2796 17.9597 40.0543 18.2062C41.4732 18.4033 41.0529 19.6961 40.2503 20.6511C37.4682 23.9617 33.9448 25.7837 29.6279 26.0753C28.9448 26.1215 28.2645 26.2081 27.3423 26.3C27.9865 29.9007 27.4135 33.137 25.4512 35.9632C20.7943 42.6704 11.1816 42.928 7.05944 35.9086C5.49016 33.2363 5.75825 29.5376 7.62942 27.099C9.52113 24.6336 12.1177 23.6916 14.8866 24.4663C16.9122 25.033 18.3785 26.9059 18.1203 28.5969C17.7927 30.743 16.0683 32.0641 13.6421 31.8134C11.9051 31.6339 11.3342 32.1477 12.13 33.9452Z" fill="#2DBBC6"/>
<path d="M157.352 31.7128C157.352 23.5812 157.398 15.6539 157.313 7.72797C157.295 6.02496 157.817 5.47396 159.49 5.558C163.429 5.75595 167.399 5.60086 171.312 6.00948C174.574 6.35005 176.864 8.30693 177.5 11.711C178.073 14.7809 176.937 17.2121 174.654 18.7703C175.96 20.5829 177.547 22.1306 178.341 24.0128C180.503 29.1379 177.318 34.6213 171.813 35.0407C167.109 35.3991 162.356 35.1148 157.352 35.1148C157.352 33.9894 157.352 32.9535 157.352 31.7128ZM167.341 22.0541C166.634 22.0541 165.889 21.9192 165.231 22.0993C164.754 22.2299 164.051 22.7621 164.033 23.1423C163.923 25.5203 163.977 27.9059 163.977 30.2295C169.048 31.2208 171.634 30.1604 172.103 27.0582C172.512 24.3508 170.786 22.3828 167.341 22.0541ZM168.776 17.1522C169.031 17.0355 169.338 16.9745 169.533 16.793C170.879 15.5397 171.531 14.0762 170.675 12.2761C169.879 10.6024 167.033 9.56068 164.931 10.2622C163.148 10.8572 164.059 12.4418 164.026 13.5486C163.913 17.4448 163.983 17.4469 168.776 17.1522Z" fill="#9E1D54"/>
<path d="M229.198 3.55572C230.155 3.5031 230.935 3.45887 231.711 3.49824C233.986 3.61362 234.922 4.47689 234.955 6.77725C235.02 11.3678 234.974 15.9599 234.974 21.2463C235.917 20.6395 236.624 20.3717 237.046 19.8664C237.573 19.236 237.882 18.4184 238.256 17.6669C240.378 13.4005 241.746 12.7628 247.081 13.8391C245.415 16.8952 243.803 19.8504 242.085 23.0016C246.077 25.0715 245.149 30.2089 248.25 33.5068C247.184 34.1216 246.319 34.8869 245.322 35.1466C242.19 35.9626 240.731 34.933 239.678 31.4394C239.394 30.4969 239.173 29.528 238.802 28.6209C237.975 26.6025 237.537 26.416 235.022 26.8883C235.022 29.5689 235.022 32.2935 235.022 35.1441C232.808 35.1441 230.786 35.1441 228.657 35.1441C228.607 34.4535 228.533 33.903 228.533 33.3525C228.526 24.0783 228.518 14.8041 228.549 5.53002C228.551 4.88694 228.856 4.24486 229.198 3.55572Z" fill="#9E1E55"/>
<path d="M64.4636 26.2538C64.4637 29.2938 64.4637 32.1226 64.4637 35.1179C62.2233 35.1179 60.1287 35.1179 57.8389 35.1179C57.7945 34.4154 57.7153 33.74 57.7147 33.0645C57.7066 24.7012 57.7681 16.3372 57.6666 7.97511C57.6432 6.04316 58.2738 5.58655 60.1034 5.63638C64.7069 5.76177 69.3171 5.73137 73.9225 5.64797C75.4606 5.62011 76.519 5.76817 76.6344 7.64272C76.7667 9.79241 76.0124 11.2606 74.1815 11.4237C72.0707 11.6118 69.9353 11.5385 67.8104 11.5482C64.4494 11.5635 64.4499 11.5527 64.4621 14.842C64.4649 15.6134 64.4625 16.3849 64.4625 17.4096C67.5268 17.4096 70.4671 17.4096 73.7903 17.4096C73.7903 19.488 73.7903 21.3136 73.7903 23.3414C70.5873 23.3414 67.6371 23.3414 64.4635 23.3414C64.4635 24.3756 64.4635 25.2091 64.4636 26.2538Z" fill="#9D1B52"/>
<path d="M224.314 33.4394C223.323 35.808 221.39 35.4961 219.516 35.3174C217.473 35.1225 216.817 33.6537 216.756 31.9406C216.644 28.7592 216.724 25.5713 216.691 22.3865C216.676 20.9911 216.913 19.3754 214.721 19.3919C212.958 19.4052 211.85 20.587 211.847 22.4793C211.84 26.6445 211.845 30.8097 211.845 35.1378C209.505 35.1378 207.346 35.1378 204.928 35.1378C204.928 33.0942 204.928 31.2072 204.928 29.3203C204.926 24.5778 204.963 19.8347 204.898 15.0931C204.88 13.793 205.328 13.1359 206.595 13.4027C208.34 13.7702 210.05 14.3025 211.775 14.7643C211.731 14.9685 211.686 15.1727 211.641 15.3769C212.959 14.7465 214.217 13.861 215.606 13.5328C220.053 12.4823 223.391 15.2021 223.614 20.0375C223.76 23.2163 223.601 26.4082 223.692 29.5909C223.727 30.8279 224.076 32.056 224.314 33.4394Z" fill="#A02257"/>
<path d="M184.929 34.9858C180.076 31.8621 180.757 24.4773 186.446 22.4464C187.924 21.9185 189.65 22.1193 191.234 21.8303C191.921 21.7048 192.537 21.1871 193.185 20.8475C192.608 20.0604 192.104 18.6897 191.438 18.6054C189.966 18.4191 188.363 18.7049 186.903 19.1157C184.173 19.8835 182.364 18.5752 182.603 15.7281C182.632 15.3774 183.114 14.9079 183.489 14.7672C187.047 13.4312 190.729 12.9141 194.507 13.4273C197.644 13.8533 199.856 16.2803 199.974 19.4772C200.076 22.2344 199.929 25.0017 200.06 27.7564C200.122 29.0381 200.816 30.3051 200.793 31.5706C200.772 32.6926 200.469 34.2183 199.707 34.7979C199 35.3357 197.167 35.3028 196.454 34.736C194.905 33.5056 193.937 33.8306 192.393 34.7511C190.139 36.0952 187.566 36.1834 184.929 34.9858ZM189.521 30.5866C190.472 30.5034 191.502 30.622 192.357 30.29C193.665 29.7819 194.098 26.417 192.975 26.223C191.687 26.0004 189.969 26.2106 188.963 26.9486C187.78 27.8159 187.701 29.4053 189.521 30.5866Z" fill="#9E1E55"/>
<path d="M80.1121 15.6732C84.0082 12.083 89.1147 12.4935 92.2323 14.223C95.6447 16.1161 97.7319 21.441 97.0432 25.8771C96.5496 29.057 95.7442 32.0592 92.8792 34.0588C88.2745 37.2725 79.7069 36.4518 77.6694 28.5986C76.4854 24.0348 76.8774 19.6285 80.1121 15.6732ZM86.3634 18.1674C85.7131 18.8537 84.5535 19.5042 84.5022 20.2327C84.3002 23.099 84.2896 26.0059 84.5815 28.8594C84.6492 29.5204 86.1961 30.4872 87.0548 30.4794C87.8871 30.4719 89.3505 29.4601 89.4244 28.7702C89.7261 25.9537 89.7419 23.0834 89.5776 20.2495C89.4898 18.736 88.3074 17.964 86.3634 18.1674Z" fill="#9F2056"/>
<path d="M138.448 14.4333C142.234 12.3989 145.918 12.2874 149.302 14.832C152.708 17.394 153.005 21.1303 152.51 25.009C152.37 26.1116 151.821 26.6871 150.527 26.6458C147.364 26.5447 144.195 26.6128 141.008 26.6128C141.47 30.8447 143.653 31.4532 150.328 29.3389C150.4 29.4455 150.51 29.6175 150.627 29.7848C152.657 32.6906 152.482 33.714 149.216 34.8429C144.489 36.477 138.802 36.3868 135.904 32.1904C133.143 28.1906 132.905 17.5194 138.448 14.4333ZM146.608 21.3583C145.967 18.4418 145.012 17.4928 143.129 17.9015C141.468 18.2623 140.765 19.6018 141.13 22.0665C142.895 21.9334 144.685 21.7984 146.608 21.3583Z" fill="#9F2056"/>
<path d="M120.504 9.51269C121.57 7.65939 124.154 6.51842 125.917 7.14255C126.386 7.30882 126.875 8.1033 126.923 8.64746C127.059 10.1862 126.971 11.7447 126.971 13.3903C127.585 13.4702 128.06 13.5802 128.536 13.5862C132.767 13.6403 132.886 13.7846 132.01 18.3315C131.026 18.3315 129.977 18.4095 128.945 18.3126C127.519 18.1789 126.867 18.5974 126.935 20.1652C127.042 22.6418 127.001 25.1272 126.95 27.6074C126.914 29.4072 127.781 30.3188 129.506 30.1394C131.923 29.8881 131.618 31.5867 131.779 33.0158C131.97 34.7014 131.175 35.2729 129.558 35.1809C128.147 35.1006 126.724 35.2619 125.308 35.2291C122.423 35.1622 120.552 33.3909 120.459 30.4859C120.354 27.2282 120.412 23.9652 120.4 20.7045C120.397 20.0103 120.399 19.3161 120.399 18.3962C118.196 18.5655 116.501 18.4724 116.662 15.5695C116.818 12.7589 118.8 13.8188 120.301 13.4897C120.362 12.2009 120.421 10.9456 120.504 9.51269Z" fill="#9E1E54"/>
<path d="M106.445 16.0438C107.01 16.0209 107.671 16.0224 107.891 15.7118C109.4 13.5746 111.508 13.1259 113.883 13.5073C114.372 13.5857 115.202 14.2027 115.163 14.4644C114.924 16.0556 114.574 17.6505 114.029 19.16C113.906 19.5017 112.846 19.6948 112.245 19.6418C109.45 19.3956 107.93 20.6941 107.928 23.4703C107.925 27.2876 107.927 31.105 107.927 35.1053C105.671 35.1053 103.582 35.1053 101.247 35.1053C101.247 30.5688 101.313 26.0515 101.206 21.5383C101.175 20.2443 100.881 18.837 100.284 17.7052C99.4817 16.1839 99.9053 14.9291 100.977 14.1523C101.675 13.6467 103.062 13.6722 103.96 13.9815C104.868 14.2939 105.554 15.2499 106.445 16.0438Z" fill="#9D1C53"/>
<path d="M167.528 22.0547C170.786 22.3828 172.512 24.3508 172.103 27.0582C171.634 30.1604 169.048 31.2208 163.977 30.2295C163.977 27.9059 163.923 25.5203 164.033 23.1423C164.05 22.7621 164.754 22.2299 165.231 22.0993C165.889 21.9192 166.634 22.0541 167.528 22.0547Z" fill="#F6ECF0"/>
<path d="M168.6 17.1931C163.983 17.447 163.913 17.4449 164.026 13.5487C164.059 12.442 163.148 10.8573 164.931 10.2623C167.033 9.56079 169.878 10.6025 170.674 12.2762C171.531 14.0763 170.879 15.5398 169.533 16.7932C169.338 16.9747 169.031 17.0356 168.6 17.1931Z" fill="#F4E7EB"/>
<path d="M189.364 30.5437C187.701 29.4052 187.78 27.8158 188.963 26.9486C189.969 26.2106 191.687 26.0004 192.975 26.223C194.098 26.417 193.665 29.7819 192.357 30.2899C191.503 30.622 190.473 30.5033 189.364 30.5437Z" fill="#F2E4E9"/>
<path d="M86.5329 18.1442C88.3072 17.9639 89.4896 18.7358 89.5773 20.2493C89.7416 23.0832 89.7259 25.9535 89.4242 28.77C89.3503 29.4599 87.8869 30.4717 87.0545 30.4792C86.1958 30.487 84.6489 29.5202 84.5813 28.8592C84.2893 26.0057 84.2999 23.0988 84.5019 20.2325C84.5533 19.504 85.7128 18.8535 86.5329 18.1442Z" fill="#FAF5F7"/>
<path d="M146.541 21.5109C144.685 21.7985 142.895 21.9335 141.13 22.0665C140.765 19.6019 141.468 18.2623 143.129 17.9016C145.012 17.4929 145.967 18.4419 146.541 21.5109Z" fill="#F5E8ED"/>
</svg>

<svg width="249" height="42" viewBox="0 0 249 42" fill="none" xmlns="http://www.w3.org/2000/svg"><path d="M12.13 33.945c2.234 2.003 4.741 2.322 6.933 1 2.265-1.364 3.517-4.268 3.065-6.93-1.012-5.974-8.703-9.534-14.488-5.532-1.658 1.147-3.23 1.645-5.095 1.399-.63-.083-1.495-.418-1.725-.894-.215-.442.1-1.359.476-1.836 2.826-3.595 6.668-5.287 11.136-5.727.49-.048.98-.089 1.47-.144.058-.007.108-.087.315-.264-.65-3.118-.118-6.179 1.691-8.936 2.76-4.201 6.767-5.9 11.645-5.165 3.766.567 6.367 2.87 7.621 6.5.954 2.758.243 5.24-1.532 7.499-1.843 2.346-4.258 2.892-7.024 2.314-2.135-.447-3.404-2.346-3.043-4.406.334-1.906 2.112-3.075 4.24-2.99.74.029 1.496-.39 2.244-.605-.335-.641-.553-1.392-1.028-1.902-1.575-1.687-3.666-1.555-5.541-.936-2.18.718-3.64 2.388-3.988 4.783-.686 4.727 2.484 8.639 7.295 9.506 2.786.502 5.308-.224 7.824-1.779 1.435-.886 3.659-.94 5.433-.694 1.42.197.999 1.49.196 2.445-2.782 3.31-6.305 5.133-10.622 5.424-.683.047-1.363.133-2.286.225.645 3.6.072 6.837-1.89 9.663-4.658 6.707-14.27 6.965-18.393-.054-1.569-2.673-1.3-6.371.57-8.81 1.892-2.465 4.489-3.407 7.258-2.633 2.025.567 3.491 2.44 3.233 4.13-.327 2.147-2.052 3.468-4.478 3.217-1.737-.18-2.308.335-1.512 2.132z" fill="#2DBBC6"/><path d="M157.352 31.713c0-8.132.046-16.06-.039-23.985-.018-1.703.504-2.254 2.177-2.17 3.939.198 7.909.043 11.822.451 3.262.341 5.552 2.298 6.188 5.702.573 3.07-.563 5.501-2.846 7.06 1.306 1.812 2.893 3.36 3.687 5.242 2.162 5.125-1.023 10.608-6.528 11.028-4.704.358-9.457.074-14.461.074v-3.402zm9.989-9.659c-.707 0-1.452-.135-2.11.045-.477.13-1.18.663-1.198 1.043-.11 2.378-.056 4.764-.056 7.088 5.071.99 7.657-.07 8.126-3.172.409-2.707-1.317-4.675-4.762-5.004zm1.435-4.902c.255-.117.562-.178.757-.359 1.346-1.253 1.998-2.717 1.142-4.517-.796-1.674-3.642-2.715-5.744-2.014-1.783.595-.872 2.18-.905 3.287-.113 3.896-.043 3.898 4.75 3.603z" fill="#9E1D54"/><path d="M229.198 3.556c.957-.053 1.737-.097 2.513-.058 2.275.116 3.211.979 3.244 3.28.065 4.59.019 9.182.019 14.468.943-.606 1.65-.874 2.072-1.38.527-.63.836-1.448 1.21-2.2 2.122-4.266 3.49-4.903 8.825-3.827l-4.996 9.163c3.992 2.07 3.064 7.207 6.165 10.505-1.066.615-1.931 1.38-2.928 1.64-3.132.816-4.591-.214-5.644-3.708-.284-.942-.505-1.911-.876-2.818-.827-2.018-1.265-2.205-3.78-1.733v8.256h-6.365c-.05-.69-.124-1.241-.124-1.791-.007-9.275-.015-18.549.016-27.823.002-.643.307-1.285.649-1.974z" fill="#9E1E55"/><path d="M64.464 26.254v8.864h-6.625c-.044-.703-.124-1.378-.124-2.053-.008-8.364.053-16.728-.048-25.09-.024-1.932.607-2.388 2.436-2.339 4.604.126 9.214.095 13.82.012 1.538-.028 2.596.12 2.711 1.995.133 2.15-.622 3.618-2.453 3.78-2.11.189-4.246.116-6.37.125-3.362.015-3.361.005-3.349 3.294.003.771 0 1.543 0 2.568h9.328v5.931h-9.327v2.913z" fill="#9D1B52"/><path d="M224.314 33.44c-.991 2.368-2.924 2.056-4.798 1.877-2.043-.194-2.699-1.663-2.76-3.376-.112-3.182-.032-6.37-.065-9.554-.015-1.396.222-3.012-1.97-2.995-1.763.013-2.871 1.195-2.874 3.087-.007 4.166-.002 8.33-.002 12.659h-6.917V29.32c-.002-4.742.035-9.485-.03-14.227-.018-1.3.43-1.957 1.697-1.69 1.745.367 3.455.9 5.18 1.361l-.134.613c1.318-.63 2.576-1.516 3.965-1.844 4.447-1.05 7.785 1.67 8.008 6.505.146 3.178-.013 6.37.078 9.553.035 1.237.384 2.465.622 3.848z" fill="#A02257"/><path d="M184.929 34.986c-4.853-3.124-4.172-10.509 1.517-12.54 1.478-.527 3.204-.327 4.788-.616.687-.125 1.303-.643 1.951-.982-.577-.788-1.081-2.158-1.747-2.243-1.472-.186-3.075.1-4.535.51-2.73.769-4.539-.54-4.3-3.387.029-.35.511-.82.886-.96 3.558-1.337 7.24-1.854 11.018-1.34 3.137.425 5.349 2.852 5.467 6.05.102 2.756-.045 5.524.086 8.278.062 1.282.756 2.55.733 3.815-.021 1.122-.324 2.647-1.086 3.227-.707.538-2.54.505-3.253-.062-1.549-1.23-2.517-.905-4.061.015-2.254 1.344-4.827 1.432-7.464.235zm4.592-4.4c.951-.083 1.981.036 2.836-.296 1.308-.508 1.741-3.873.618-4.067-1.288-.223-3.006-.012-4.012.726-1.183.867-1.262 2.456.558 3.638z" fill="#9E1E55"/><path d="M80.112 15.673c3.896-3.59 9.003-3.18 12.12-1.45 3.413 1.893 5.5 7.218 4.811 11.654-.493 3.18-1.299 6.182-4.164 8.182-4.605 3.214-13.172 2.393-15.21-5.46-1.184-4.564-.792-8.97 2.443-12.926zm6.251 2.494c-.65.687-1.81 1.337-1.86 2.066-.203 2.866-.213 5.773.079 8.626.067.661 1.614 1.628 2.473 1.62.832-.007 2.295-1.019 2.37-1.709.301-2.816.317-5.687.153-8.52-.088-1.514-1.27-2.286-3.215-2.083zm52.085-3.734c3.786-2.034 7.47-2.146 10.854.399 3.406 2.562 3.703 6.298 3.208 10.177-.14 1.103-.689 1.678-1.983 1.637-3.163-.101-6.332-.033-9.519-.033.462 4.232 2.645 4.84 9.32 2.726.072.107.182.279.299.446 2.03 2.906 1.855 3.929-1.411 5.058-4.727 1.634-10.414 1.544-13.312-2.653-2.761-4-2.999-14.67 2.544-17.757zm8.16 6.925c-.641-2.916-1.596-3.865-3.479-3.457-1.661.361-2.364 1.7-1.999 4.166 1.765-.134 3.555-.269 5.478-.709z" fill="#9F2056"/><path d="M120.504 9.513c1.066-1.854 3.65-2.995 5.413-2.37.469.166.958.96 1.006 1.504.136 1.54.048 3.098.048 4.743.614.08 1.089.19 1.565.196 4.231.054 4.35.199 3.474 4.745-.984 0-2.033.079-3.065-.018-1.426-.134-2.078.284-2.01 1.852.107 2.477.066 4.962.015 7.442-.036 1.8.831 2.712 2.556 2.532 2.417-.25 2.112 1.448 2.273 2.877.191 1.685-.604 2.257-2.221 2.165-1.411-.08-2.834.08-4.25.048-2.885-.067-4.756-1.838-4.849-4.743-.105-3.258-.047-6.52-.059-9.782-.003-.694-.001-1.388-.001-2.308-2.203.17-3.898.076-3.737-2.827.156-2.81 2.138-1.75 3.639-2.08.061-1.288.12-2.543.203-3.976z" fill="#9E1E54"/><path d="M106.445 16.044c.565-.023 1.226-.022 1.446-.332 1.509-2.137 3.617-2.586 5.992-2.205.489.079 1.319.696 1.28.957-.239 1.592-.589 3.187-1.134 4.696-.123.342-1.183.535-1.784.482-2.795-.246-4.315 1.052-4.317 3.828-.003 3.818-.001 7.635-.001 11.635h-6.68c0-4.536.066-9.053-.041-13.567-.031-1.294-.325-2.701-.922-3.833-.802-1.521-.379-2.776.693-3.553.698-.505 2.085-.48 2.983-.17.908.312 1.594 1.268 2.485 2.062z" fill="#9D1C53"/><path d="M167.528 22.055c3.258.328 4.984 2.296 4.575 5.003-.469 3.102-3.055 4.163-8.126 3.172 0-2.324-.054-4.71.056-7.088.017-.38.721-.912 1.198-1.043.658-.18 1.403-.045 2.297-.044z" fill="#F6ECF0"/><path d="M168.6 17.193c-4.617.254-4.687.252-4.574-3.644.033-1.107-.878-2.692.905-3.287 2.102-.701 4.947.34 5.743 2.014.857 1.8.205 3.264-1.141 4.517-.195.182-.502.243-.933.4z" fill="#F4E7EB"/><path d="M189.364 30.544c-1.663-1.139-1.584-2.728-.401-3.595 1.006-.738 2.724-.949 4.012-.726 1.123.194.69 3.559-.618 4.067-.854.332-1.884.213-2.993.254z" fill="#F2E4E9"/><path d="M86.533 18.144c1.774-.18 2.957.592 3.044 2.105.165 2.834.149 5.704-.153 8.521-.074.69-1.537 1.702-2.37 1.71-.858.007-2.405-.96-2.473-1.62-.292-2.854-.281-5.761-.08-8.627.052-.729 1.212-1.38 2.032-2.089z" fill="#FAF5F7"/><path d="M146.541 21.51c-1.856.288-3.646.423-5.411.556-.365-2.464.338-3.804 1.999-4.164 1.883-.41 2.838.54 3.412 3.609z" fill="#F5E8ED"/></svg>
